X:1
T:Title
%%score ( 1 2 ) 3 4 5
L:1/8
M:3/2
K:C
V:1 treble nm="Part_1"
V:2 treble 
V:3 treble-8 nm="Part_2"
V:4 treble-8 nm="Part_3"
V:5 treble-8 nm="Part_4"
V:1
 c4 e2 d2 c3 B | d4 B2 A2 c4 | d6 c2 B2 A2 | c6 c2 B2 c2 | A6 G2 F2 EG | D4 A2 G4 FE | G8 c4 | %7
 A4 z4 z4 | d12 | c2 B4 B2 c4 | B4 c2 B2 AG FG | A4 d8 | c2 B4 A2 B4 | c6 B2 A3 G | =B12 | c8 _B4 | %16
 A2 _B2 A2 G2 F4 | G4 c4 (3_B2 A2 B2 | _B2 A2 c2 BA G4 | z2 d2 c2 _B4 BA | G8 F2 G2 | %21
 A4 [Gc]4 ^F4 | [Gc]12 |] %23
V:2
 x12 | x12 | x12 | x12 | x12 | x12 | x12 | x12 | x12 | x12 | x12 | x12 | x12 | x12 | x12 | x12 | %16
 x12 | x12 | x12 | x12 | x12 | x8 B4 | x12 |] %23
V:3
[K:F] c8 c4 | [df]8 c4 | =B6 c2 d4 | c12 | f8 g4 | f4 z2 f2 e2 d2 | c12 | f8 g4 | f12 | g8 a4 | %10
 g4 z4 z4 | f6 g2 a4 | g2 f2 e4 d4 | c8 e2 e2 | g8 z4 | c8 d2 e2 | f12 | e8 f4 | d4 c8 | B8 d4 | %20
 d4 _e6 d2 | c2 d2 c2 A2 =B4 | c12 |] %23
V:4
 C4 z2 F2 E2 E2 | D8 A4 | G4 E4 D4 | F12- | F8 E4 | F4 z4 z4 | G8 G4 | F4 F4 C4 | D8 A2 A2 | %9
 G6 G2 F2 F2 | G4 z4 z4 | D12 | d4 c4 B4 | A8 ^c4 | d12 | c4 _B2 A2 G4 | F12 | C8 D4 | G12- | G12 | %20
 z12 | F4 _E4 D4 | C12 |] %23
V:5
 G4 A4 G4 | A2 B2 A2 G2 ^F4 | G2 A2 B2 G2 A4 | z12 | c4 A4 B4 | A4 c4 B2 G2 | C12 | z4 c8 | A8 D4 | %9
 d8 z4 | d6 c4 B2 | A8 A4 | G4 A4 G4 | F4 F2 G2 A4 | G12 | C4 F4 (3G2 A2 _B2 | c4 c2 _B2 A4 | %17
 G8 z4 | z4 C8 | z12 | G4 C4 D4 | A4 _BA G2 ^F4 | G12 |] %23

